X: 12710
T: Father Joe
R: reel
M: 4/4
K: Gmajor
D2|D2B2B2B2|B2cB AGFE|DFAB AGFE|DFAF G2D2|
D2BB B2BB|B2cB AGFE|DFAB AGFE|DFAF A2|
|:D2|D2dd d2AB|c2BA AGFE|DFAB AGFE|DFAF G2:|

